X:1
T:Shoes and Stockings
L:1/8
M:C|
I:linebreak $
K:G
V:1 treble
V:1
 D2 |"G" G2 G2 B2 B2 | "C"cB "D"c2 d4 | "G" G2 G2 BAGB | "C"ABAG "D"FEDF |$
 "G" G2 G2 B2 B2 |"C" cB c2 "D"d4 |"G" cecc "D"BGAF |  "G"G4 G2 ::$
 d2 |"G"  g2 g2 "D"a2 a2 |"G"  ba b2 d4 |"C" c2 c2 "G" B2 B2 |"D" AB c2 d2 g2 | $
"G" gg "D"aa |"G" ba b2 d4 | "C" cBAc "G"GFEG | "D" AG F2 "G"G2:|